X:1
T:Offertorium pro Festo Ss. Trinitatis
T:Michael Haller (1840-1915) Op. 39, No. 4
T:Offertorium pro Festo Ss. Trinitatis 
T:Blessed be God the Father and the only-begotten Son of God, and the Holy Spirit; for he has dealt with us according to his mercy. 
C:Michael Haller (1840-1915)
C:Op. 39, No. 4
%%score [ 1 2 3 4 ]
L:1/8
Q:1/4=80
M:4/4
K:C
V:1 treble-8 transpose=-12 nm="Tenor I" snm="TI"
V:2 treble-8 transpose=-12 nm="Tenor II" snm="TII"
V:3 bass nm="Bass I" snm="BI."
V:4 bass nm="Bass II" snm="BII"
V:1
!mf! c4 c4 | !^!e4 d2 c2 |!<(! d4!<)! e4 | (d4!>(! g4)!>)! | e8 | d3 d d2 d2 | c2 B2 c2 d2 | %7
w: Be- ne-|di- ctus sit|De- us|Pa- *|ter,|u- ni- ge- ni-|tus- que De- i|
 e3 e d4 |!f! z8 | d3 d e2 d2 | (c2 f4)!>(! e2!>)! | d8 ||[M:3/4]!p! c4 d2 | e2 d2 c2 | c6 | c6 | %16
w: Fi- li- us,||san- ctus quo- que|Spi- * ri-|tus:|qui- a|fe- cit no-|bis-|cum|
!<(! d2 d2!<)! d2 | e3 d c2 |!>(! d6!>)! |!mf! d6 | d2 d2 d2 | e3 d c2 | d6 |!f! e6 | e2 f2 g2 | %25
w: mi- se- ri-|cor- di- am|su-|am,|mi- se- ri-|cor- di- am|su-|am.|mi- se- ri-|
 a3 g f2 | (d4 e2 | d6- | d6) | c6- |"^rit." c6- | c6- | c6- | !fermata!c6 |] %34
w: cor- di- am|su- *|||am.|_||||
V:2
!mf! c4 c4 | !^!c4 B2 G2 |!<(! (A2 B2)!<)! c4 | (G4!>(! d4)!>)! | c8 | B3 B B2 A2 | G2 G2 G2 G2 | %7
w: Be- ne-|di- ctus sit|De- * us|Pa- *|ter,|u- ni- ge- ni-|tus- que De- i|
 G2 c2 B4 | c3!<(! c d2!<)!!f! c2 | (B4 c3 B | AB c4)!>(! c2!>)! | B8 ||[M:3/4]!p! A4 B2 | %13
w: Fi- * li-|san- ctus quo- que|Spi- * *|* * * ri-|tus:|qui- a|
 c2 G2 G2 | A6 | G6 |!<(! B2 A2!<)! B2 | c3 B c2 |!mf! A2 A2 A2 | B3 A G2 | ^F4 A2 | c2 c2 A2 | %22
w: fe- cit no-|bis-|cum|mi- se- ri-|cor- di- am,|mi- se- ri-|cor- di- am|su- am,|mi- se- ri-|
 B2 A2 G2 | G4!f! G2 | A2 A2 c2 | c3 c c2 | (B4 c2- | c2 B2 A2 | B6) | A4 G2 |"^rit." F4 G2 | %31
w: cor- di- am|su- am,|mi- se- ri-|cor- di- am|su- *|||am, mi-|se- ri-|
 A3 A G2 | A6 | !fermata!G6 |] %34
w: cor- di- am|su-|am.|
V:3
!mf! C4 A,4 | !^!G,4 G,2 G,2 |!<(! F,4!<)! G,2 (C2- | C2 B,A,!>(! B,4)!>)! | C4 G,3 G, | %5
w: Be- ne-|di- ctus sit|De- us Pa-||ter, u- ni-|
 G,2 G,2 G,2 F,2 | E,2 D,2 (C,3 B,, | C,2) E,2 G,4 | A,2!<(! G,2 F,2!<)!!f! G,2 | (G,6 F,G, | %10
w: ge- ni- tus- que|De- i Fi- *|* li- us,|san- ctus quo- que|Spi- * *|
 A,4)!>(! G,4!>)! | G,8 ||[M:3/4]!p! E,4 G,2 | G,2 G,2 E,2 | F,6 | E,6 |!<(! G,2 ^F,2!<)! G,2 | %17
w: * ri-|tus:|qui- a|fe- cit no-|bis-|cum|mi- se- ri-|
 G,3 G, G,2 | ^F,4!mf! F,2 | G,2 G,2 G,2 | A,3 G, ^F,2 | G,2 G,2 z2 | G,2 A,2 B,2 | C3 C!f! C2 | %24
w: cor- di- am|su- am,|mi- se- ri-|cor- di- am|su- am,|mi- se- ri-|cor- di- am,|
 C2 A,2 G,2 | F,2 G,2 A,2 | (G,6 | A,6 | G,4 F,2) | E,4 G,2 |"^rit." A,4 G,2 | F,3 F, E,2 | F,6 | %33
w: mi- se- ri-|cor- di- am|su-|||am, mi-|se- ri-|cor- di- am|su-|
 !fermata!E,6 |] %34
w: am.|
V:4
!mf! C4 F,4 | !^!C,4 G,2 E,2 |!<(! D,4!<)! C,4 |!>(! G,8!>)! | C,8 | z8 | z8 | z8 | %8
w: Be- ne-|di- ctus sit|De- us|Pa-|ter,||||
 F,2 E,2!<(! D,2!<)!!f! E,2 | (G,4 C,2 D,E, | F,4)!>(! C,4!>)! | G,,8 ||[M:3/4]!p! A,,4 G,,2 | %13
w: san- ctus quo- que|Spi- * * *|* ri-|tus:|qui- a|
 C,2 B,,2 C,2 | F,,6 | C,6 |!<(! G,,2 D,2!<)! G,,2 | C,3 D, E,2 |!>(! D,6!>)! | G,,4!mf! B,,2 | %20
w: fe- cit no-|bis-|cum|mi- se- ri-|cor- di- am|su-|am, mi-|
 D,4 D,2 | C,3 C, C,2 | G,,6 |!f! C,6 | A,,2 D,2 E,2 | F,2 E,2 F,2 | (G,4 E,2 | F,6 | G,4 G,,2) | %29
w: se- ri-|cor- di- am|su-|am,|mi- se- ri-|cor- di- am|su- *|||
 A,,4 E,2 |"^rit." F,4 E,2 | F,3 F, C,2 | F,,6 | !fermata!C,6 |] %34
w: am, mi-|se- ri-|cor- di- am|su-|am.|

